packages/icons/raw/imported/OtherFrame.svg

<svg width="32" height="32" viewBox="0 0 32 32" fill="none" xmlns="http://www.w3.org/2000/svg">
<path d="M23.3077 10.8846C24.5185 10.8846 25.5 9.90309 25.5 8.69231C25.5 7.48153 24.5185 6.5 23.3077 6.5C22.0969 6.5 21.1154 7.48153 21.1154 8.69231M23.3077 10.8846C22.0969 10.8846 21.1154 9.90309 21.1154 8.69231M23.3077 10.8846V21.1154M21.1154 8.69231H10.8846M21.1154 23.3077C21.1154 24.5185 22.0969 25.5 23.3077 25.5C24.5185 25.5 25.5 24.5185 25.5 23.3077C25.5 22.0969 24.5185 21.1154 23.3077 21.1154M21.1154 23.3077C21.1154 22.0969 22.0969 21.1154 23.3077 21.1154M21.1154 23.3077H10.8846M10.8846 8.69231C10.8846 9.90309 9.90309 10.8846 8.69231 10.8846M10.8846 8.69231C10.8846 7.48153 9.90309 6.5 8.69231 6.5C7.48153 6.5 6.5 7.48153 6.5 8.69231C6.5 9.90309 7.48153 10.8846 8.69231 10.8846M8.69231 10.8846V21.1154M10.8846 23.3077C10.8846 24.5185 9.90309 25.5 8.69231 25.5C7.48153 25.5 6.5 24.5185 6.5 23.3077C6.5 22.0969 7.48153 21.1154 8.69231 21.1154M10.8846 23.3077C10.8846 22.0969 9.90309 21.1154 8.69231 21.1154" stroke="black" stroke-linecap="round"/>
</svg>

<svg width="32" height="32" fill="none" xmlns="http://www.w3.org/2000/svg"><path d="M23.308 10.885a2.192 2.192 0 1 0-2.193-2.193m2.193 2.193a2.192 2.192 0 0 1-2.193-2.193m2.193 2.193v10.23M21.115 8.692h-10.23m10.23 14.616a2.192 2.192 0 1 0 2.193-2.193m-2.193 2.193c0-1.211.982-2.193 2.193-2.193m-2.193 2.193h-10.23m0-14.616c0 1.211-.982 2.193-2.193 2.193m2.193-2.193a2.192 2.192 0 1 0-2.193 2.193m0 0v10.23m2.193 2.193a2.192 2.192 0 1 1-2.193-2.193m2.193 2.193c0-1.211-.982-2.193-2.193-2.193" stroke="#000" stroke-linecap="round"/></svg>
